Newaita-dark/actions/16/tools-media-optical-burn.svg

<svg height="16" viewBox="0 0 16 16" width="16" xmlns="http://www.w3.org/2000/svg"><path d="m7.9375 1.449219c-3.664062 0-6.613281 2.949219-6.613281 6.613281s2.949219 6.617188 6.613281 6.617188 6.617188-2.953126 6.617188-6.617188-2.953126-6.613281-6.617188-6.613281zm0 1.320312c2.933594 0 5.292969 2.363281 5.292969 5.292969 0 2.933594-2.359375 5.292969-5.292969 5.292969-2.929688 0-5.292969-2.359375-5.292969-5.292969 0-2.929688 2.363281-5.292969 5.292969-5.292969zm0 0" fill="#e0e0e0"/><path d="m7.9375 6.078125c-1.097656 0-1.984375.886719-1.984375 1.984375 0 1.101562.886719 1.984375 1.984375 1.984375 1.101562 0 1.984375-.882813 1.984375-1.984375 0-1.097656-.882813-1.984375-1.984375-1.984375zm0 .660156c.734375 0 1.324219.59375 1.324219 1.324219 0 .734375-.589844 1.324219-1.324219 1.324219-.730469 0-1.324219-.589844-1.324219-1.324219 0-.730469.59375-1.324219 1.324219-1.324219zm0 0" fill="#e0e0e0"/><g fill="#f44336"><path d="m7.9375 4.09375c-2.199219 0-3.96875 1.769531-3.96875 3.96875h.660156c0-1.832031 1.476563-3.308594 3.308594-3.308594zm0 0"/><path d="m7.9375 12.03125c2.199219 0 3.96875-1.769531 3.96875-3.96875h-.660156c0 1.832031-1.476563 3.308594-3.308594 3.308594zm0 0"/></g></svg>

<svg xmlns="http://www.w3.org/2000/svg" xmlns:xlink="http://www.w3.org/1999/xlink" width="16px" height="16px" viewBox="0 0 16 16" version="1.1">
<g id="surface1">
     <defs>
  <style id="current-color-scheme" type="text/css">
   .ColorScheme-Text { color:#eeeeee; } .ColorScheme-Highlight { color:#424242; }
  </style>
 </defs>
<path style="fill:currentColor" class="ColorScheme-Text" d="M 7.9375 1.449219 C 4.273438 1.449219 1.324219 4.398438 1.324219 8.0625 C 1.324219 11.726562 4.273438 14.679688 7.9375 14.679688 C 11.601562 14.679688 14.554688 11.726562 14.554688 8.0625 C 14.554688 4.398438 11.601562 1.449219 7.9375 1.449219 Z M 7.9375 2.769531 C 10.871094 2.769531 13.230469 5.132812 13.230469 8.0625 C 13.230469 10.996094 10.871094 13.355469 7.9375 13.355469 C 5.007812 13.355469 2.644531 10.996094 2.644531 8.0625 C 2.644531 5.132812 5.007812 2.769531 7.9375 2.769531 Z M 7.9375 2.769531 "/>
     <defs>
  <style id="current-color-scheme" type="text/css">
   .ColorScheme-Text { color:#eeeeee; } .ColorScheme-Highlight { color:#424242; }
  </style>
 </defs>
<path style="fill:currentColor" class="ColorScheme-Text" d="M 7.9375 6.078125 C 6.839844 6.078125 5.953125 6.964844 5.953125 8.0625 C 5.953125 9.164062 6.839844 10.046875 7.9375 10.046875 C 9.039062 10.046875 9.921875 9.164062 9.921875 8.0625 C 9.921875 6.964844 9.039062 6.078125 7.9375 6.078125 Z M 7.9375 6.738281 C 8.671875 6.738281 9.261719 7.332031 9.261719 8.0625 C 9.261719 8.796875 8.671875 9.386719 7.9375 9.386719 C 7.207031 9.386719 6.613281 8.796875 6.613281 8.0625 C 6.613281 7.332031 7.207031 6.738281 7.9375 6.738281 Z M 7.9375 6.738281 "/>
<path style=" stroke:none;fill-rule:nonzero;fill:rgb(95.686275%,26.274511%,21.176471%);fill-opacity:1;" d="M 7.9375 4.09375 C 5.738281 4.09375 3.96875 5.863281 3.96875 8.0625 L 4.628906 8.0625 C 4.628906 6.230469 6.105469 4.753906 7.9375 4.753906 Z M 7.9375 4.09375 "/>
<path style=" stroke:none;fill-rule:nonzero;fill:rgb(95.686275%,26.274511%,21.176471%);fill-opacity:1;" d="M 7.9375 12.03125 C 10.136719 12.03125 11.90625 10.261719 11.90625 8.0625 L 11.246094 8.0625 C 11.246094 9.894531 9.769531 11.371094 7.9375 11.371094 Z M 7.9375 12.03125 "/>
</g>
</svg>
